X: 1
T: Bar The Door At Midnight
M: 2/4
L: 1/8
R: polka
K: Emin
|:g/f/|:eA Ac|B/c/B/A/ G>A|BG c>B|AB cd|
eA Ac|B/c/B/A/ G>A|BG dB|1BA A2:|2BA A2||
|:ea ab|a/g/e/f/ g>g|ed gd|e/f/e/d/ BA|
ea ab|a/g/e/f/ g>e|dB gB|1BA A2:|2BA A||
